resources/haticons/SVG/vibration.svg

<!-- Generated by IcoMoon.io -->
<svg version="1.1" xmlns="http://www.w3.org/2000/svg" width="24" height="24" viewBox="0 0 24 24">
<title>vibration</title>
<path d="M15.984 18.984v-13.969h-7.969v13.969h7.969zM16.5 3q0.656 0 1.078 0.422t0.422 1.078v15q0 0.656-0.422 1.078t-1.078 0.422h-9q-0.656 0-1.078-0.422t-0.422-1.078v-15q0-0.656 0.422-1.078t1.078-0.422h9zM18.984 17.016v-10.031h2.016v10.031h-2.016zM21.984 9h2.016v6h-2.016v-6zM3 17.016v-10.031h2.016v10.031h-2.016zM0 15v-6h2.016v6h-2.016z"></path>
</svg>

<svg xmlns="http://www.w3.org/2000/svg" width="24" height="24"><path d="M15.984 18.984V5.015H8.015v13.969h7.969zM16.5 3q.656 0 1.078.422T18 4.5v15q0 .656-.422 1.078T16.5 21h-9q-.656 0-1.078-.422T6 19.5v-15q0-.656.422-1.078T7.5 3h9zm2.484 14.016V6.985H21v10.031h-2.016zm3-8.016H24v6h-2.016V9zM3 17.016V6.985h2.016v10.031H3zM0 15V9h2.016v6H0z"/></svg>
